images_Srikandi_svg/cmd/ar/lc_undo.svg

<?xml version="1.0" encoding="UTF-8" standalone="no"?>
<svg
   xmlns:dc="http://purl.org/dc/elements/1.1/"
   xmlns:cc="http://creativecommons.org/ns#"
   xmlns:rdf="http://www.w3.org/1999/02/22-rdf-syntax-ns#"
   xmlns:svg="http://www.w3.org/2000/svg"
   xmlns="http://www.w3.org/2000/svg"
   xmlns:xlink="http://www.w3.org/1999/xlink"
   xmlns:sodipodi="http://sodipodi.sourceforge.net/DTD/sodipodi-0.dtd"
   xmlns:inkscape="http://www.inkscape.org/namespaces/inkscape"
   height="24"
   viewBox="0 0 6.3499999 6.3500002"
   width="24"
   id="svg2"
   version="1.1"
   inkscape:version="0.91 r13725"
   sodipodi:docname="lc_undo.svg"
   inkscape:export-filename="/home/tamara/Desktop/IKON/5_258 (tamara)/ar/lc_undo.png"
   inkscape:export-xdpi="90"
   inkscape:export-ydpi="90">
  <metadata
     id="metadata76">
    <rdf:RDF>
      <cc:Work
         rdf:about="">
        <dc:format>image/svg+xml</dc:format>
        <dc:type
           rdf:resource="http://purl.org/dc/dcmitype/StillImage" />
      </cc:Work>
    </rdf:RDF>
  </metadata>
  <defs
     id="defs74" />
  <sodipodi:namedview
     pagecolor="#ffffff"
     bordercolor="#666666"
     borderopacity="1"
     objecttolerance="10"
     gridtolerance="10"
     guidetolerance="10"
     inkscape:pageopacity="0"
     inkscape:pageshadow="2"
     inkscape:window-width="1366"
     inkscape:window-height="718"
     id="namedview72"
     showgrid="true"
     inkscape:zoom="19.666667"
     inkscape:cx="6.7615341"
     inkscape:cy="12.764421"
     inkscape:window-x="0"
     inkscape:window-y="0"
     inkscape:window-maximized="1"
     inkscape:current-layer="svg2">
    <inkscape:grid
       type="xygrid"
       id="grid4204" />
  </sodipodi:namedview>
  <linearGradient
     id="a"
     gradientUnits="userSpaceOnUse"
     x1="7.157289"
     x2="7.186738"
     y1="63.928764"
     y2="156.35773">
    <stop
       offset="0"
       stop-color="#be9000"
       id="stop5" />
    <stop
       offset="1"
       stop-color="#7a5d00"
       stop-opacity="0"
       id="stop7" />
  </linearGradient>
  <linearGradient
     id="b">
    <stop
       offset="0"
       id="stop10" />
    <stop
       offset="1"
       stop-opacity="0"
       id="stop12" />
  </linearGradient>
  <linearGradient
     id="c">
    <stop
       offset="0"
       stop-color="#eaf209"
       id="stop15" />
    <stop
       offset="1"
       stop-color="#c7c634"
       stop-opacity="0"
       id="stop17" />
  </linearGradient>
  <linearGradient
     id="d"
     gradientUnits="userSpaceOnUse"
     x1="71.014435"
     x2="71.048264"
     xlink:href="#c"
     y1="111.32386"
     y2="64.538147" />
  <filter
     id="e"
     color-interpolation-filters="sRGB"
     height="1.05306"
     width="1.039979"
     x="-.019989"
     y="-.02653">
    <feGaussianBlur
       stdDeviation=".8843393"
       id="feGaussianBlur21" />
  </filter>
  <linearGradient
     id="f"
     gradientUnits="userSpaceOnUse"
     x1="71.809433"
     x2="72.415733"
     y1="30.338589"
     y2="76.767159">
    <stop
       offset="0"
       stop-color="#fffe63"
       id="stop24" />
    <stop
       offset="1"
       stop-color="#fff"
       stop-opacity="0"
       id="stop26" />
  </linearGradient>
  <radialGradient
     id="g"
     cx="61.745636"
     cy="81.787704"
     gradientTransform="matrix(0.60055947,-0.01380792,0.0138283,0.60144596,23.532724,29.771267)"
     gradientUnits="userSpaceOnUse"
     r="53.588345"
     xlink:href="#c" />
  <radialGradient
     id="h"
     cx="68.344757"
     cy="79.286057"
     gradientTransform="matrix(0.89273806,0.02389254,-0.01609512,0.60138957,5.936359,27.19911)"
     gradientUnits="userSpaceOnUse"
     r="53.588345">
    <stop
       offset="0"
       stop-color="#fcff0f"
       id="stop30" />
    <stop
       offset="1"
       stop-color="#db8900"
       id="stop32" />
  </radialGradient>
  <radialGradient
     id="i"
     cx="63.53083"
     cy="42.76326"
     gradientTransform="matrix(0.56204738,-0.00894808,0.00519341,0.32620801,27.601407,34.713045)"
     gradientUnits="userSpaceOnUse"
     r="58.68457">
    <stop
       offset="0"
       stop-color="#fff"
       id="stop35" />
    <stop
       offset="1"
       stop-color="#fff"
       stop-opacity="0"
       id="stop37" />
  </radialGradient>
  <radialGradient
     id="j"
     cx="64.245117"
     cy="66.666397"
     gradientTransform="matrix(0.99799039,0.06336543,-0.01762177,0.27753862,1.303887,44.092977)"
     gradientUnits="userSpaceOnUse"
     r="55.883793"
     xlink:href="#b" />
  <radialGradient
     id="k"
     cx="79.842957"
     cy="8.71136"
     gradientTransform="matrix(-0.04309695,0.99907089,-0.27068507,-0.01167655,118.53146,-6.434667)"
     gradientUnits="userSpaceOnUse"
     r="55.883793"
     xlink:href="#b" />
  <radialGradient
     id="l"
     cx="86.40406"
     cy="355.98929"
     gradientTransform="matrix(-0.50101706,0.39536053,-0.25808676,-0.32705811,153.61276,158.00082)"
     gradientUnits="userSpaceOnUse"
     r="55.883793"
     xlink:href="#b" />
  <radialGradient
     id="m"
     cx="34.104187"
     cy="132.8271"
     gradientTransform="matrix(0.01432491,0.45357311,-0.32608676,0.0102986,90.284022,60.900467)"
     gradientUnits="userSpaceOnUse"
     r="58.68457"
     xlink:href="#b" />
  <radialGradient
     id="n"
     cx="32.629417"
     cy="-101.06063"
     gradientTransform="matrix(0.36292386,0.21526192,-0.19646542,0.33123368,88.402991,105.15478)"
     gradientUnits="userSpaceOnUse"
     r="58.68457"
     xlink:href="#b" />
  <g
     id="g4231"
     transform="matrix(1.3799241,0,0,1.3799241,0.23915985,0.66350403)">
    <path
       d="m 2.9341871,0.30655033 c 0.049011,0.001424 0.093945,0.0204913 0.1342998,0.0471916 a 0.13076449,0.13076449 0 0 1 0.039438,0.0257496 L 4.0649665,1.2969993 a 0.13076449,0.13076449 0 0 1 0.00106,9.573e-4 c 0.015267,0.014946 0.027795,0.032476 0.037045,0.051786 l -0.025371,-0.035896 c 0.068513,0.06861 0.131811,0.1682882 0.131811,0.2923391 0,0.1274272 -0.060498,0.2313443 -0.1256847,0.308899 a 0.13076449,0.13076449 0 0 1 -0.00766,0.00833 l 0.00737,-0.00814 c -0.00546,0.00648 -0.011482,0.013049 -0.018188,0.019527 a 0.13076449,0.13076449 0 0 1 -9.576e-4,8.656e-4 L 4.064102,1.9358585 3.1100279,2.8454212 c -2e-7,2e-7 -5.581e-4,3.724e-4 -5.743e-4,3.822e-4 a 0.13076449,0.13076449 0 0 1 -0.00124,0.00124 c -6.416e-4,6.2e-4 -0.00155,5.366e-4 -0.0022,0.00115 -0.00373,0.00256 -0.010795,0.00735 -0.020485,0.013975 0.00835,-0.00587 0.012637,-0.00892 0.018188,-0.012827 -0.079296,0.073602 -0.188715,0.088837 -0.2791276,0.050545 -0.091898,-0.038933 -0.1596,-0.1297656 -0.1595689,-0.240839 l 0,-0.5226492 -1.5552165,0 c -0.00335,0.00186 -0.00745,0.00467 -0.00785,0.00508 -4.411e-4,4.166e-4 -0.00323,0.00452 -0.00508,0.00785 l 0,1.279629 0,0.014263 c -2.59e-5,0.1436259 -0.11787171,0.2614707 -0.26150677,0.261507 l -0.52274465,0 C 0.16897881,3.7046912 0.0511325,3.5868464 0.05109721,3.4432113 l 0,-1.0454898 0,-9.8e-5 c 5.88e-6,-0.02357 0.0028279,-0.025238 0.0055519,-0.035035 -0.0025338,-0.029037 -0.0055073,-0.060347 -0.0055519,-0.098212 a 0.13076449,0.13076449 0 0 1 0,-1.911e-4 l 0,-9.8e-5 a 0.13076449,0.13076449 0 0 1 0,-9.8e-5 l 9.802e-5,-0.1277912 c 0,-0.3441669 0.06943195,-0.6136188 0.25069959,-0.7948862 C 0.48316245,1.1600451 0.75261389,1.0906133 1.0967811,1.0906133 l 0.5227422,0 1.0454899,2.891e-4 0,-0.52302748 C 2.664988,0.42129699 2.7877714,0.30228545 2.9341871,0.30655033 Z"
       id="path46"
       style="fill:#f3b7d9;fill-opacity:1;stroke:#e601b4;stroke-width:0.06534711;stroke-linecap:round;stroke-linejoin:round;stroke-miterlimit:4;stroke-dasharray:none;stroke-opacity:1"
       inkscape:connector-curvature="0" />
  </g>
</svg>

<?xml version="1.0" encoding="UTF-8"?>
<svg xmlns="http://www.w3.org/2000/svg" xmlns:xlink="http://www.w3.org/1999/xlink" width="24px" height="24px" viewBox="0 0 24 24" version="1.1">
<g id="surface1">
<path style="fill-rule:nonzero;fill:rgb(95.294118%,71.764708%,85.09804%);fill-opacity:1;stroke-width:0.0653471;stroke-linecap:round;stroke-linejoin:round;stroke:rgb(90.196079%,0.392157%,70.588237%);stroke-opacity:1;stroke-miterlimit:4;" d="M 2.934186 0.306285 C 2.982908 0.307657 3.028199 0.326871 3.068686 0.353634 C 3.083097 0.35981 3.096135 0.368731 3.107801 0.37971 L 4.065082 1.297191 C 4.081551 1.312974 4.093903 1.33013 4.102824 1.35003 L 4.077434 1.31366 C 4.146056 1.382283 4.209189 1.482471 4.209189 1.605991 C 4.209189 1.733629 4.148801 1.837249 4.08361 1.914792 C 4.081551 1.918223 4.078806 1.920968 4.076062 1.923713 L 4.08361 1.915478 C 4.07812 1.921654 4.071944 1.928516 4.065082 1.934692 L 4.064396 1.936065 L 3.109859 2.845311 C 3.109859 2.845311 3.109173 2.845997 3.109173 2.845997 C 3.107801 2.847369 3.106428 2.847369 3.105742 2.848055 C 3.102311 2.8508 3.095449 2.855604 3.085841 2.862466 C 3.094076 2.85629 3.098193 2.853545 3.103683 2.849428 C 3.024081 2.922854 2.914972 2.937951 2.82439 2.900208 C 2.732436 2.861094 2.665187 2.769826 2.665187 2.659344 L 2.665187 2.136442 L 1.109518 2.136442 C 1.106774 2.138501 1.102656 2.141245 1.10197 2.141245 C 1.101284 2.141932 1.098539 2.146049 1.097166 2.14948 L 1.097166 3.443011 C 1.097166 3.587118 0.979136 3.704462 0.835029 3.704462 L 0.312813 3.704462 C 0.168706 3.704462 0.0513623 3.587118 0.0513623 3.443011 L 0.0513623 2.397893 C 0.0513623 2.373875 0.0541071 2.372503 0.056852 2.362896 C 0.0541071 2.333388 0.0513623 2.302508 0.0513623 2.264079 L 0.0513623 2.136442 C 0.0513623 1.791958 0.120671 1.522272 0.301834 1.341109 C 0.482997 1.159946 0.752682 1.090638 1.09648 1.090638 L 2.665187 1.090638 L 2.665187 0.567736 C 2.665187 0.42157 2.788021 0.302167 2.934186 0.306285 Z M 2.934186 0.306285 " transform="matrix(5.69239,0,0,5.69239,-0.104874,-0.274741)"/>
</g>
</svg>
